icons/src/svg/download.svg

<svg width="32" height="32" viewBox="0 0 32 32" fill="none" xmlns="http://www.w3.org/2000/svg">
<path d="M15.9998 1.97461C16.5521 1.97461 16.9998 2.42232 16.9998 2.97461L16.9998 23.2741L26.3111 13.9628C26.7016 13.5723 27.3348 13.5723 27.7253 13.9628C28.1158 14.3533 28.1158 14.9865 27.7253 15.377L17.8383 25.264C16.8229 26.2794 15.1767 26.2794 14.1613 25.264L4.27434 15.377C3.88381 14.9865 3.88381 14.3533 4.27434 13.9628C4.66486 13.5723 5.29803 13.5723 5.68855 13.9628L14.9998 23.274L14.9998 2.97461C14.9998 2.42232 15.4475 1.97461 15.9998 1.97461Z" fill="#0D0F13"/>
<path d="M5.1875 28C4.63522 28 4.1875 28.4477 4.1875 29C4.1875 29.5523 4.63522 30 5.1875 30L26.8083 30C27.3606 30 27.8083 29.5523 27.8083 29C27.8083 28.4477 27.3606 28 26.8083 28L5.1875 28Z" fill="#0D0F13"/>
</svg>

<svg fill="none" xmlns="http://www.w3.org/2000/svg" viewBox="0 0 32 32">
  <path fill-rule="evenodd" clip-rule="evenodd" d="M16 1.975a1 1 0 0 1 1 1v20.3l9.311-9.312a1 1 0 0 1 1.415 1.414l-9.887 9.887a2.6 2.6 0 0 1-3.677 0l-9.887-9.887a1 1 0 1 1 1.414-1.414L15 23.274V2.975a1 1 0 0 1 1-1ZM5.188 28.001a1 1 0 0 0 0 2h21.62a1 1 0 1 0 0-2H5.188Z" fill="currentColor"/>
</svg>
